X: 15015
T: George Christie Of Fochabers
R: waltz
M: 3/4
K: Gmajor
(D2G3A)|:(A2B2-B6) d2|(A2B2-B4)(G2AB)|(c3B) (A3G) (E3D)|C4(C3B,)|
(A,2G2-G4) (G3A2)|(E2F2-F2) (D2E3D)|G6 (A2-A2Bc)|A6(D2G3A)|(A2B2-B6) d2|
(A2B2-B4) (G2AB)|(c3B) (A3G) E3D|C8(C3B,)|(A,2G2-G4) (G3A)|(E2F2- F2)(D2 E3-D)|
G6(A2B3-A)|1 G6(D2G3A):|:2G6(A2B3A)|:(B3g) (g3B) g3B|(c3g) (g3c) g3c|
A6(D2A3B)|A6(A2B3-A)|(B3g) (g3B) g3B|(c3g) (g3c) g3c|A6(D2A3B)|
A6G2 G3F|(G2e4-e4) G2|(F2d4-d4) F2|(E2c4-c4)E2|(D2B4-B4)D2|
(C2A4-A4)B2|(E2F2 -F2)(D2 E3D2)|G6(A2B3A)|1 G6(A2B3A:|2 G6||

